X: 1604
T: Rast Seyir
C: Rauf Yektâ
O: Turkey
F: http://compmusic.upf.edu/node/140
N: rast--seyir--semai--1--rauf_yekta
N: makam= rast
N: form= seyir
N: usul= semai = 3/4
M: 3/4
L: 1/16
K: C _1/4B ^f  
Q: 1/4=120
%%MIDI tuningsystem comma53
G8 F4  | G8 A4  | B8 A4  | G8 z4  | G8 c4  | c8 B4  | \
w:   |   |   |   |   |   | 
d8 c4  | B8 A4  | G8 A4  | B8 A4  | G8 F4  | 
w:   |   |   |   |   | 
E8 D4  | E4 F4 G4  | A4 B4 A4  | A4 G4 F4  | \
w:   |   |   |   | 
G8 z4  | G8 f4  | g8 a2b2  | a4 g4 f4  | 
w:   |   |   |   | 
g8 z4  | g4 f4 e4  | f4 g4 a4  | g4 f4 e4  | \
w:   |   |   |   | 
d8 z4  | c4 d4 e4  | g8 e4  | d8 c4  | B8 z4  | 
w:   |   |   |   |   | 
A4 B4 c4  | e4 d4 c4  | B8 A4  | G8 z4  | |


